dist/img/logo/ceviklik.svg

<svg width="62" height="62" viewBox="0 0 62 62" fill="none" xmlns="http://www.w3.org/2000/svg">
<path d="M60.2308 31.0001C60.2308 14.8563 47.1438 1.76929 31.0001 1.76929C14.8563 1.76929 1.76929 14.8563 1.76929 31.0001C1.76929 47.1438 14.8563 60.2308 31.0001 60.2308C47.1438 60.2308 60.2308 47.1438 60.2308 31.0001Z" stroke="#3271B2" stroke-width="2"/>
<path d="M29.4385 13.3691H30.8769V15.9768H29.4385V13.3691Z" fill="#E0027A"/>
<path d="M33.7539 17.2539L35.6001 15.4077L36.6078 16.4231L34.7693 18.2693L33.7539 17.2539Z" fill="#E0027A"/>
<path d="M23.5693 16.4231L24.5847 15.4077L26.4309 17.2539L25.4155 18.2616L23.5693 16.4231Z" fill="#E0027A"/>
<path d="M21.7078 20.2615H24.3155V21.6922H21.7078V20.2615Z" fill="#E0027A"/>
<path d="M36.123 20.2615H38.7307V21.6922H36.123V20.2615Z" fill="#E0027A"/>
<path d="M47.5307 25.3693L38.2537 25.3155L38.6614 27.0155L33.7537 24.854C31.623 23.8001 29.0922 24.3155 27.4845 26.1309L27.2691 26.3847L21.7691 26.4386L22.1768 24.6463L12.9153 24.6924L12.923 26.1309L20.4537 26.0924L17.4922 39.0309L13.0153 39.077L13.023 40.5078L18.5614 40.4617L19.0614 38.2693L22.0999 42.3155C22.3307 42.5078 27.6307 46.9155 28.1691 47.3617C28.6999 47.8924 29.4461 48.1001 30.1614 47.9232C30.8691 47.7463 31.4461 47.2078 31.7076 46.477C32.2768 46.8463 32.9845 46.9155 33.6076 46.6617C34.2307 46.4078 34.7153 45.8693 34.9153 45.1847C35.4999 45.5001 36.1768 45.5232 36.7768 45.254C37.3768 44.977 37.823 44.4386 38.0076 43.777C38.8307 44.1155 39.7691 43.9078 40.3845 43.2386C41.223 42.3155 41.2076 40.8463 40.3461 39.954L39.8537 39.4463L41.3922 38.4078L41.8922 40.4617L47.4153 40.5078L47.423 39.077L42.9384 39.0309L39.9999 26.7617L47.523 26.8001L47.5307 25.3693ZM39.4153 42.2309C39.0922 42.5847 38.5691 42.5924 38.2384 42.2463L37.4307 41.4463L33.3768 37.2309L32.4307 38.2616L36.4922 42.4847C36.823 42.8232 36.8307 43.3847 36.5076 43.7386C36.1845 44.0847 35.6614 44.0924 35.3307 43.754L34.3461 42.8155L31.2691 39.6001L30.323 40.6232L33.4153 43.854C33.7461 44.2001 33.7537 44.7617 33.4307 45.1078C33.1076 45.4617 32.5768 45.4693 32.2537 45.1232L31.1922 44.0309L29.4614 42.2001L29.2076 41.9309L28.7307 42.4386L28.2537 42.954L30.2307 45.0386C30.5537 45.377 30.5768 45.9386 30.2614 46.2847C29.9384 46.6309 29.4076 46.6386 29.0768 46.2924C28.9076 46.1617 25.3845 43.2232 23.0614 41.2847L19.4614 36.5078L21.4384 27.877L26.0384 27.8309L23.8076 30.4617C23.0384 31.377 23.0999 32.7847 23.9461 33.6232C25.123 34.7617 26.9461 34.6924 28.0461 33.4617L29.3922 31.9463L30.2614 31.9617H30.3384L30.7384 31.9693L39.3999 40.977C39.7307 41.3232 39.7384 41.8847 39.4153 42.2309ZM41.0461 36.9463L38.8614 38.4078L32.6691 31.9617H33.923V30.5232H30.3461L28.8153 30.5001L27.0614 32.477C26.4691 33.1386 25.4922 33.177 24.8614 32.5617C24.5537 32.2617 24.5307 31.754 24.8153 31.4232L28.4691 27.1078C29.6845 25.7463 31.5922 25.3617 33.1922 26.1617L39.0768 28.754L41.0461 36.9463Z" fill="#00AEEF"/>
</svg>

<svg width="62" height="62" viewBox="0 0 62 62" fill="none" xmlns="http://www.w3.org/2000/svg"><path d="M60.23 31C60.23 14.856 47.145 1.77 31 1.77S1.77 14.855 1.77 31 14.855 60.23 31 60.23 60.23 47.145 60.23 31z" stroke="#3271B2" stroke-width="2"/><path d="M29.439 13.37h1.438v2.607h-1.438v-2.608zm4.315 3.884l1.846-1.846 1.008 1.015-1.839 1.846-1.015-1.015zm-10.184-.831l1.015-1.015 1.846 1.846-1.015 1.008-1.847-1.839zm-1.862 3.839h2.608v1.43h-2.608v-1.43zm14.415 0h2.608v1.43h-2.608v-1.43z" fill="#E0027A"/><path d="M47.53 25.37l-9.276-.055.407 1.7-4.907-2.161c-2.131-1.054-4.662-.538-6.27 1.277l-.215.254-5.5.054.408-1.793-9.262.046.008 1.439 7.53-.039-2.96 12.939-4.478.046.008 1.43 5.538-.045.5-2.193 3.039 4.047c.23.192 5.53 4.6 6.07 5.046a2.09 2.09 0 001.991.561c.708-.177 1.285-.715 1.547-1.446a2.06 2.06 0 001.9.185 2.266 2.266 0 001.307-1.477 2.088 2.088 0 001.862.069 2.285 2.285 0 001.23-1.477c.824.338 1.762.13 2.378-.538.838-.923.823-2.393-.039-3.285l-.492-.508 1.538-1.038.5 2.054 5.523.046.008-1.431-4.485-.046L40 26.76l7.523.04.008-1.432zm-8.115 16.86a.791.791 0 01-1.177.016l-.807-.8-4.054-4.215-.946 1.03 4.061 4.224c.331.338.339.9.016 1.254a.803.803 0 01-1.177.015l-.985-.938L31.27 39.6l-.946 1.023 3.092 3.231a.924.924 0 01.016 1.254.791.791 0 01-1.177.015l-1.062-1.092-1.73-1.83-.254-.27-.477.508-.477.515 1.977 2.085c.323.338.346.9.03 1.246a.805.805 0 01-1.184.007c-.17-.13-3.693-3.069-6.016-5.007l-3.6-4.777 1.977-8.631 4.6-.046-2.23 2.63c-.77.916-.708 2.324.138 3.162 1.177 1.139 3 1.07 4.1-.161l1.346-1.516.87.016h.076l.4.007 8.662 9.008c.33.346.338.908.015 1.254zm1.631-5.284l-2.185 1.462-6.192-6.446h1.254v-1.439h-3.577l-1.53-.023-1.755 1.977c-.592.662-1.569.7-2.2.085a.84.84 0 01-.046-1.139l3.654-4.315c1.215-1.362 3.123-1.746 4.723-.946l5.885 2.592 1.97 8.192z" fill="#00AEEF"/></svg>
